X:230
T: Church Hill
T: Cnoc\'an an Teampaill
S: B.Breathnach: "Ceol Rince na hEireann" II/54
Z: B.Black
L: 1/8
M: 6/8
R: jig
K: G
age e2B|e2B dBA|age fed|efe dBA|
age e2B|e2B dBA|age fed|efe dBA :|
BAB gfg|aba geg|BAB gfg|age dBA|
BAB gfg|aba geg|dBB gfg|age dBA :|

